X:1
T:P. e. Anders Fredrik Andersson (Hambo)
R:hambo
Z:2001 Brian Wilson 
M:3/4
K:D
P:A
A
|: "D"d>A F>A d<f | "D"A>d d<f f>a | "A"g>f e>d c>e | "A"e2 d<B (3ABC
|  "D"d>A F>A d<f | "D"A>d d<f f>a | "G"g>f e>d "A"c>e | "A"(3efe "D"d4 :|
P:B
|: "D"(3DFA "G"B2 "A"A>F | "D"E<D F2 F>F | "A"G>A, A,<C C>E | "D"D>F A<dc>B
|  "D"(3DFA "G"B2 "A"A>F | "D"E<D F2 F>F | "A"G>A, A,<C C>E | "D"D>d d4 :|
